X:1
T:056 - Rei da Glória
T:Letra: Henry Francis Lyte (1793-1847)
T:Trad.: Salomão Luiz Ginsburg (1867-1927)
T:Música: Henry John Gauntlett (1805-1876)
M:4/4
L:1/4
K:C
V:1
CE | "C"G>G GA | GEGG | "D7"cBAA | "G"G2EG | "C"c>c cB | dc"F"cA | "C"Ge"G"d>d | "C"c2 EG | "Am"A"D7"^F"G"G"(C)"c | "G7"cB"C"c"F"f | "G7"f"C"e"C/G"d"G7"d | "C"c2 |]
w: 1.~A Je-sus, o Rei da gló-ria, Hi-nos de lou-vor can-tai; Aos seus pés, hu-mil-de-men-te,  Seu po-der, pois, e-xal-tai. Per-do-a-dos, res-ga-ta-dos, Su-a gló-ria pro-cla-mai!
w: 2.~Seu per-dão e su-a gra-ça Aos per-di-dos dis-pen-sou; Tão pa-cien-tee mui bon-do-so Aos re-bel-des se mos-trou; Li-ber-tou-os, trans-for-mou-os, Dos cas-ti-gos os sal-vou!
w: 3.~Nos-sas ten-ta-ções co-nhe-ce, Pois sa-tã o quis ven-cer; Tri-un-fan-te, Cris-toa-go-ra Aos ten-ta-dos quer va-ler. Po-de-ro-soe tão bon-do-so, E-le po-de so-cor-rer!
w: 4.~Con-tem-plan-do su-a fa-ce, Ó re-mi-dos, oa-do-rai! De-di-ca-dos, con-sa-gra-dos, Su-a fa-ma pu-bli-cai. Oh, lou-vai-o, e-xal-tai-o, Seu a-mor a-nun-ci-ai!
W: 
W:
W: 1. A Jesus, o Rei da glória,
W: Hinos de louvor cantai;
W: Aos seus pés, humildemente, 
W: Seu poder, pois, exaltai.
W: Perdoados, resgatados,
W: Sua glória proclamai!
W: 
W: 2. Seu perdão e sua graça
W: Aos perdidos dispensou;
W: Tão paciente e mui bondoso
W: Aos rebeldes se mostrou;
W: Libertou-os, transformou-os,
W: Dos castigos os salvou!
W: 
W:
W:
W: 3. Nossas tentações conhece,
W: Pois satã o quis vencer;
W: Triunfante, Cristo agora
W: Aos tentados quer valer.
W: Poderoso e tão bondoso,
W: Ele pode socorrer!
W: 
W: 4. Contemplando sua face,
W: Ó remidos, o adorai!
W: Dedicados, consagrados,
W: Sua fama publicai.
W: Oh, louvai-o, exaltai-o,
W: Seu amor anunciai!
W:         
W: 





%wordsfont Times-Roman 13.0
%vocalfont Times-Roman 13.0
